;FLAVOR:Marlin
;TIME:236
;Filament used: 0.0065796m
;Layer height: 0.12
;MINX:20.253
;MINY:105.877
;MINZ:0.12
;MAXX:214.798
;MAXY:129.117
;MAXZ:1.62
;Generated with Cura_SteamEngine 4.10.0
M105
M109 S0
M82 ;absolute extrusion mode
; Ender 3 Custom Start G-code
G92 E0 ; Reset Extruder
G28 ; Home all axes
G1 Z2.0 F3000 ; Move Z Axis up little to prevent scratching of Heat Bed
G1 X0.1 Y20 Z0.3 F5000.0 ; Move to start position
G1 X0.1 Y200.0 Z0.3 F1500.0 E15 ; Draw the first line
G1 X0.4 Y200.0 Z0.3 F5000.0 ; Move to side a little
G1 X0.4 Y20 Z0.3 F1500.0 E30 ; Draw the second line
G92 E0 ; Reset Extruder
G1 Z2.0 F3000 ; Move Z Axis up little to prevent scratching of Heat Bed
G1 X5 Y20 Z0.3 F5000.0 ; Move over to prevent blob squish
G92 E0
G92 E0
G1 F1500 E-6.5
;LAYER_COUNT:1
;LAYER:0
M107
G1 F300 Z1.62
;MESH:abcedario.stl
G0 F6000 X113.438 Y123.669 Z1.62
;TYPE:WALL-INNER
G1 F300 Z0.12
G1 F1500 E0
G1 F900 X113.438 Y123.301 E0.00138
G1 X113.709 Y123.558 E0.00279
G1 X113.438 Y123.669 E0.00389
G1 F1500 E-6.49611
G1 F300 Z1.62
G0 F6000 X113.61 Y128.871 Z1.62
G1 F300 Z0.12
G1 F1500 E0.00389
G1 F900 X113.238 Y128.871 E0.00529
G1 X113.238 Y121.432 E0.03328
G1 X113.61 Y121.432 E0.03468
G1 X113.61 Y123.188 E0.04128
G1 X113.979 Y123.539 E0.0432
G1 X114.042 Y123.599 E0.04353
G1 X114.482 Y124.018 E0.04581
G1 X114.555 Y124.087 E0.04619
G1 X114.623 Y124.013 E0.04643
G1 X116.988 Y121.432 E0.0596
G1 X117.223 Y121.432 E0.06049
G1 X117.224 Y121.432 E0.06049
G1 X117.45 Y121.432 E0.06134
G1 X117.296 Y121.598 E0.0618
G1 X114.842 Y124.246 E0.07538
G1 X117.044 Y126.434 E0.08706
G1 X117.214 Y126.603 E0.08797
G1 X116.975 Y126.603 E0.08845
G1 X116.973 Y126.603 E0.08846
G1 X116.843 Y126.603 E0.08895
G1 X114.475 Y124.166 E0.10173
G1 X114.407 Y124.096 E0.10201
G1 X113.984 Y123.661 E0.10364
G1 X113.903 Y123.694 E0.10389
G1 X113.61 Y123.814 E0.10508
G1 X113.61 Y128.871 E0.1241
G0 F6000 X113.81 Y129.071
;TYPE:WALL-OUTER
G1 F900 X113.038 Y129.071 E0.12701
G1 X113.038 Y121.232 E0.1565
G1 X113.81 Y121.232 E0.1594
G1 X113.81 Y123.102 E0.16644
G1 X114.545 Y123.802 E0.17026
G1 X116.901 Y121.232 E0.18337
G1 X117.908 Y121.232 E0.18716
G1 X115.12 Y124.24 E0.20259
G1 X117.699 Y126.803 E0.21627
G1 X116.759 Y126.803 E0.21981
G1 X113.935 Y123.897 E0.23505
G1 X113.81 Y123.948 E0.23556
G1 X113.81 Y129.071 E0.25483
G0 F6000 X113.416 Y128.69
;TYPE:SKIN
G1 F900 X113.423 Y128.555 E0.2552
G1 X113.423 Y123.888 E0.26803
G1 X113.471 Y123.795 E0.26831
G0 F6000 X113.393 Y123.151
G1 F900 X113.423 Y123.04 E0.26865
G1 X113.423 Y121.626 E0.27276
G1 F1500 E-6.22724
G1 F300 Z1.62
G0 F6000 X115.372 Y123.433 Z1.62
G1 F300 Z0.12
G1 F1500 E0.27276
G1 F900 X115.304 Y123.507 E0.27295
G1 X114.694 Y124.169 E0.27467
G0 F6000 X115.44 Y123.359
G1 F900 X115.508 Y123.286 E0.27487
G1 X116.797 Y121.888 E0.27869
G1 X117.068 Y121.593 E0.27949
G0 F6000 X117.527 Y121.345
G1 F900 X117.589 Y121.407 E0.27966
G1 F1500 E-6.22034
G1 F300 Z1.62
G0 F6000 X117.306 Y126.639 Z1.62
G1 F300 Z0.12
G1 F1500 E0.27966
G1 F900 X117.353 Y126.687 E0.27978
G1 F1500 E-6.22022
G1 F300 Z1.62
G0 F6000 X107.037 Y128.577 Z1.62
;TYPE:WALL-INNER
G1 F300 Z0.12
G1 F1500 E0.27978
G1 F900 X106.541 Y128.577 E0.28165
G1 X106.541 Y128.169 E0.28319
G1 X107.037 Y128.169 E0.28505
G1 X107.037 Y128.577 E0.28659
G0 F6000 X107.237 Y128.777
;TYPE:WALL-OUTER
G1 F900 X106.341 Y128.777 E0.28996
G1 X106.341 Y127.969 E0.293
G1 X107.237 Y127.969 E0.29637
G1 X107.237 Y128.777 E0.29941
G0 F6000 X106.854 Y128.35
;TYPE:SKIN
G1 F900 X106.739 Y128.377 E0.29996
G1 X106.668 Y128.447 E0.30043
G1 F1500 E-6.19957
G1 F300 Z1.62
G0 F6000 X106.603 Y126.288 Z1.62
;TYPE:WALL-INNER
G1 F300 Z0.12
G1 F1500 E0.30043
G1 F900 X106.602 Y121.33 E0.31908
G1 X106.594 Y121.052 E0.32013
G1 X106.575 Y120.787 E0.32113
G1 X106.505 Y120.385 E0.32266
G1 X106.367 Y120.049 E0.32403
G1 X106.136 Y119.788 E0.32534
G1 X105.827 Y119.61 E0.32668
G1 X105.433 Y119.53 E0.3282
G1 X105.144 Y119.514 E0.32928
G1 X104.776 Y119.56 E0.33068
G1 X104.685 Y119.584 E0.33103
G1 X104.562 Y119.616 E0.33151
G1 X104.562 Y119.489 E0.3318
G1 X104.562 Y119.488 E0.3318
G1 X104.562 Y119.334 E0.33238
G1 X104.647 Y119.317 E0.33271
G1 X105.074 Y119.264 E0.33433
G1 X105.55 Y119.256 E0.33612
G1 X105.872 Y119.316 E0.33735
G1 X106.141 Y119.415 E0.33843
G1 X106.511 Y119.647 E0.34007
G1 X106.717 Y119.911 E0.34133
G1 X106.836 Y120.183 E0.34245
G1 X106.915 Y120.477 E0.34359
G1 X106.955 Y120.739 E0.34459
G1 X106.975 Y121.063 E0.34581
G1 X106.975 Y126.603 E0.36666
G1 X105.399 Y126.603 E0.37258
G1 X105.399 Y126.387 E0.3734
G1 X106.504 Y126.387 E0.37755
G1 X106.603 Y126.387 E0.37793
G1 X106.603 Y126.288 E0.37817
G0 F6000 X106.403 Y126.187
;TYPE:WALL-OUTER
G1 F900 X106.402 Y121.333 E0.39643
G1 X106.394 Y121.062 E0.39745
G1 X106.376 Y120.811 E0.3984
G1 X106.312 Y120.441 E0.39981
G1 X106.195 Y120.156 E0.40097
G1 X106.008 Y119.945 E0.40203
G1 X105.755 Y119.8 E0.40312
G1 X105.407 Y119.729 E0.40446
G1 X105.151 Y119.715 E0.40543
G1 X104.812 Y119.757 E0.40671
G1 X104.674 Y119.791 E0.40725
G1 X104.402 Y119.877 E0.40832
G1 X104.362 Y119.892 E0.40848
G1 X104.362 Y119.169 E0.4112
G1 X104.614 Y119.12 E0.41216
G1 X105.061 Y119.064 E0.41386
G1 X105.313 Y119.048 E0.41481
G1 X105.574 Y119.057 E0.41579
G1 X105.924 Y119.122 E0.41713
G1 X106.218 Y119.23 E0.41831
G1 X106.446 Y119.352 E0.41928
G1 X106.653 Y119.504 E0.42025
G1 X106.889 Y119.806 E0.42169
G1 X107.025 Y120.118 E0.42297
G1 X107.112 Y120.439 E0.42422
G1 X107.155 Y120.719 E0.42529
G1 X107.175 Y121.051 E0.42654
G1 X107.175 Y126.803 E0.44818
G1 X105.199 Y126.803 E0.45561
G1 X105.199 Y126.187 E0.45793
G1 X106.403 Y126.187 E0.46246
G0 F6000 X106.788 Y126.304
;TYPE:SKIN
G1 F900 X106.773 Y126.43 E0.46281
G1 X106.788 Y125.173 E0.46633
G1 X106.785 Y121.21 E0.4774
G1 X106.736 Y120.595 E0.47912
G1 X106.631 Y120.207 E0.48024
G1 X106.381 Y119.816 E0.48154
G0 F6000 X105.927 Y119.503
G1 F900 X105.718 Y119.436 E0.48179
G1 X105.248 Y119.39 E0.48231
G1 X104.728 Y119.436 E0.48289
G1 F1500 E-6.01711
G1 F300 Z1.62
G0 F6000 X99.585 Y126.603 Z1.62
;TYPE:WALL-INNER
G1 F300 Z0.12
G1 F1500 E0.48289
G1 F900 X99.213 Y126.603 E0.48429
G1 X99.213 Y121.432 E0.50375
G1 X99.585 Y121.432 E0.50515
G1 X99.585 Y126.603 E0.5246
G0 F6000 X99.785 Y126.803
;TYPE:WALL-OUTER
G1 F900 X99.013 Y126.803 E0.5275
G1 X99.013 Y121.232 E0.54846
G1 X99.785 Y121.232 E0.55137
G1 X99.785 Y126.803 E0.57233
G0 F6000 X99.398 Y126.41
;TYPE:SKIN
G1 F900 X99.398 Y126.269 E0.57272
G1 X99.398 Y121.743 E0.58536
G1 X99.406 Y121.609 E0.58573
G1 F1500 E-5.91427
G1 F300 Z1.62
G0 F6000 X99.647 Y128.577 Z1.62
;TYPE:WALL-INNER
G1 F300 Z0.12
G1 F1500 E0.58573
G1 F900 X99.151 Y128.577 E0.5876
G1 X99.151 Y128.169 E0.58914
G1 X99.647 Y128.169 E0.591
G1 X99.647 Y128.577 E0.59254
G0 F6000 X99.847 Y128.777
;TYPE:WALL-OUTER
G1 F900 X98.951 Y128.777 E0.59591
G1 X98.951 Y127.969 E0.59895
G1 X99.847 Y127.969 E0.60232
G1 X99.847 Y128.777 E0.60536
G0 F6000 X99.38 Y128.372
;TYPE:SKIN
G1 F900 X99.297 Y128.43 E0.60572
G1 X99.482 Y128.332 E0.60646
G1 F1500 E-5.89354
G1 F300 Z1.62
G0 F6000 X92.713 Y125.575 Z1.62
;TYPE:WALL-INNER
G1 F300 Z0.12
G1 F1500 E0.60646
G1 F900 X92.737 Y125.463 E0.60689
G1 X92.765 Y125.339 E0.60737
G1 X92.746 Y125.464 E0.60738
G1 X92.713 Y125.575 E0.60739
G0 F6000 X92.051 Y126.428
G1 F900 X92.25 Y126.311 E0.60826
G1 X92.417 Y126.131 E0.60918
G1 X92.533 Y126.006 E0.60983
G1 X92.543 Y125.983 E0.60992
G1 X92.684 Y125.671 E0.61121
G1 X92.556 Y125.988 E0.61125
G1 X92.542 Y126.011 E0.61125
G1 X92.449 Y126.159 E0.61135
G1 X92.265 Y126.318 E0.6115
G1 X92.051 Y126.428 E0.61155
G1 F1500 E-5.88845
G1 F300 Z1.62
G0 F6000 X88.985 Y125.931 Z1.62
G1 F300 Z0.12
G1 F1500 E0.61155
G1 F900 X88.985 Y125.846 E0.61187
G1 X88.985 Y125.719 E0.61235
G1 X89.084 Y125.788 E0.6125
G1 X89.167 Y125.846 E0.61279
G1 X89.067 Y125.893 E0.61296
G1 X88.985 Y125.931 E0.61308
G1 F1500 E-5.88692
G1 F300 Z1.62
G0 F6000 X89.156 Y128.871 Z1.62
G1 F300 Z0.12
G1 F1500 E0.61308
G1 F900 X88.785 Y128.871 E0.61448
G1 X88.785 Y121.432 E0.64247
G1 X89.156 Y121.432 E0.64386
G1 X89.156 Y125.595 E0.65952
G1 X89.437 Y125.792 E0.66081
G1 X89.535 Y125.86 E0.66126
G1 X89.592 Y125.9 E0.66152
G1 X89.699 Y125.963 E0.66199
G1 X89.914 Y126.09 E0.66293
G1 X90.063 Y126.165 E0.66356
G1 X90.158 Y126.213 E0.66396
G1 X90.363 Y126.288 E0.66478
G1 X90.433 Y126.313 E0.66506
G1 X90.521 Y126.346 E0.66541
G1 X90.902 Y126.422 E0.66688
G1 X91.225 Y126.438 E0.66809
G1 X91.51 Y126.407 E0.66917
G1 X91.846 Y126.317 E0.67048
G1 X92.123 Y126.154 E0.67169
G1 X92.364 Y125.894 E0.67302
G1 X92.508 Y125.575 E0.67434
G1 X92.589 Y125.21 E0.67575
G1 X92.612 Y125.015 E0.67648
G1 X92.631 Y124.75 E0.67748
G1 X92.64 Y124.43 E0.67869
G1 X92.64 Y121.432 E0.68997
G1 X93.011 Y121.432 E0.69136
G1 X93.011 Y124.867 E0.70429
G1 X93.002 Y125.108 E0.70519
G1 X92.942 Y125.508 E0.70671
G1 X92.844 Y125.835 E0.708
G1 X92.736 Y126.076 E0.70899
G1 X92.725 Y126.093 E0.70907
G1 X92.618 Y126.264 E0.70983
G1 X92.601 Y126.291 E0.70995
G1 X92.378 Y126.485 E0.71106
G1 X92.117 Y126.619 E0.71216
G1 X91.853 Y126.7 E0.7132
G1 X91.605 Y126.746 E0.71415
G1 X91.406 Y126.762 E0.7149
G1 X91.017 Y126.724 E0.71637
G1 X90.78 Y126.667 E0.71729
G1 X90.519 Y126.577 E0.71833
G1 X90.365 Y126.501 E0.71897
G1 X90.298 Y126.468 E0.71925
G1 X90.083 Y126.339 E0.72006
G1 X90.001 Y126.29 E0.72031
G1 X89.849 Y126.18 E0.72077
G1 X89.655 Y126.039 E0.72121
G1 X89.55 Y125.951 E0.72142
G1 X89.501 Y125.91 E0.72149
G1 X89.393 Y125.961 E0.7218
G1 X89.156 Y126.072 E0.72279
G1 X89.156 Y128.871 E0.73332
G0 F6000 X89.356 Y129.071
;TYPE:WALL-OUTER
G1 F900 X88.585 Y129.071 E0.73622
G1 X88.585 Y121.232 E0.76571
G1 X89.356 Y121.232 E0.76861
G1 X89.356 Y125.491 E0.78463
G1 X89.7 Y125.732 E0.78621
G1 X90.01 Y125.914 E0.78756
G1 X90.238 Y126.029 E0.78852
G1 X90.575 Y126.153 E0.78988
G1 X90.926 Y126.223 E0.79122
G1 X91.219 Y126.237 E0.79233
G1 X91.473 Y126.21 E0.79329
G1 X91.768 Y126.131 E0.79444
G1 X91.996 Y125.997 E0.79543
G1 X92.195 Y125.782 E0.79653
G1 X92.317 Y125.511 E0.79765
G1 X92.392 Y125.176 E0.79894
G1 X92.413 Y124.996 E0.79962
G1 X92.431 Y124.74 E0.80059
G1 X92.44 Y124.427 E0.80177
G1 X92.44 Y121.232 E0.81379
G1 X93.211 Y121.232 E0.81669
G1 X93.211 Y124.874 E0.83039
G1 X93.202 Y125.128 E0.83135
G1 X93.138 Y125.552 E0.83296
G1 X93.032 Y125.907 E0.83435
G1 X92.915 Y126.168 E0.83543
G1 X92.755 Y126.422 E0.83656
G1 X92.491 Y126.652 E0.83788
G1 X92.193 Y126.805 E0.83914
G1 X91.896 Y126.896 E0.8403
G1 X91.639 Y126.944 E0.84129
G1 X91.402 Y126.963 E0.84218
G1 X90.981 Y126.921 E0.84377
G1 X90.729 Y126.861 E0.84475
G1 X90.442 Y126.762 E0.84589
G1 X90.205 Y126.645 E0.84689
G1 X89.889 Y126.455 E0.84827
G1 X89.538 Y126.201 E0.8499
G1 X89.471 Y126.145 E0.85023
G1 X89.356 Y126.199 E0.85071
G1 X89.356 Y129.071 E0.86151
G0 F6000 X88.957 Y128.696
;TYPE:SKIN
G1 F900 X88.97 Y128.568 E0.86187
G1 X88.97 Y126.164 E0.86857
G1 X89.014 Y126.066 E0.86887
G0 F6000 X88.939 Y125.567
G1 F900 X88.97 Y125.456 E0.86918
G1 X88.97 Y121.638 E0.87949
G1 X89.03 Y121.556 E0.87976
G1 F1500 E-5.62024
G1 F300 Z1.62
G0 F6000 X92.825 Y121.675 Z1.62
G1 F300 Z0.12
G1 F1500 E0.87976
G1 F900 X92.825 Y121.816 E0.88017
G1 X92.821 Y124.782 E0.88871
G1 X92.79 Y125.175 E0.88984
G1 F1500 E-5.61016
G1 F300 Z1.62
G0 F6000 X91.932 Y126.438 Z1.62
G1 F300 Z0.12
G1 F1500 E0.88984
G1 F900 X91.856 Y126.504 E0.89002
G1 X91.377 Y126.591 E0.8909
G1 X90.923 Y126.561 E0.89171
G1 X90.739 Y126.519 E0.89205
G1 F1500 E-5.60795
G1 F300 Z1.62
G0 F6000 X92.896 Y121.604 Z1.62
G1 F300 Z0.12
G1 F1500 E0.89205
G1 F900 X92.838 Y121.546 E0.89221
G1 F1500 E-5.60779
G1 F300 Z1.62
G0 F6000 X82.038 Y126.123 Z1.62
;TYPE:WALL-INNER
G1 F300 Z0.12
G1 F1500 E0.89221
G1 F900 X82.18 Y126.06 E0.89279
G1 X82.18 Y122.561 E0.90596
G1 X81.918 Y122.383 E0.90715
G1 X81.814 Y122.313 E0.90762
G1 X81.761 Y122.277 E0.90786
G1 X81.465 Y122.12 E0.90912
G1 X81.41 Y122.09 E0.90936
G1 X81.12 Y121.972 E0.91053
G1 X81.082 Y121.956 E0.91069
G1 X81.013 Y121.939 E0.91096
G1 X80.743 Y121.871 E0.912
G1 X80.341 Y121.821 E0.91353
G1 X80.238 Y121.819 E0.91392
G1 X79.826 Y121.861 E0.91547
G1 X79.482 Y121.973 E0.91683
G1 X79.214 Y122.122 E0.91799
G1 X78.937 Y122.362 E0.91937
G1 X78.769 Y122.617 E0.92052
G1 X78.63 Y122.974 E0.92196
G1 X78.547 Y123.333 E0.92334
G1 X78.494 Y123.728 E0.92484
G1 X78.474 Y124.091 E0.92621
G1 X78.484 Y124.363 E0.92723
G1 X78.552 Y124.833 E0.92902
G1 X78.665 Y125.217 E0.93053
G1 X78.794 Y125.515 E0.93175
G1 X78.957 Y125.787 E0.93294
G1 X79.157 Y126.003 E0.93405
G1 X79.479 Y126.228 E0.93553
G1 X79.807 Y126.369 E0.93687
G1 X80.103 Y126.446 E0.93802
G1 X80.42 Y126.489 E0.93922
G1 X80.884 Y126.464 E0.94097
G1 X81.219 Y126.406 E0.94225
G1 X81.222 Y126.406 E0.94226
G1 X81.44 Y126.347 E0.94311
G1 X81.503 Y126.329 E0.94336
G1 X81.842 Y126.202 E0.94472
G1 X81.887 Y126.185 E0.9449
G1 X81.946 Y126.163 E0.94514
G1 X82.038 Y126.123 E0.94552
G0 F6000 X81.98 Y125.93
;TYPE:WALL-OUTER
G1 F900 X81.98 Y122.667 E0.95779
G1 X81.658 Y122.448 E0.95926
G1 X81.325 Y122.271 E0.96068
G1 X81.02 Y122.147 E0.96191
G1 X80.706 Y122.068 E0.96313
G1 X80.326 Y122.021 E0.96457
G1 X80.246 Y122.019 E0.96487
G1 X79.868 Y122.058 E0.9663
G1 X79.562 Y122.157 E0.96751
G1 X79.329 Y122.287 E0.96852
G1 X79.089 Y122.495 E0.96971
G1 X78.948 Y122.709 E0.97068
G1 X78.822 Y123.033 E0.97198
G1 X78.744 Y123.369 E0.97328
G1 X78.693 Y123.747 E0.97472
G1 X78.674 Y124.093 E0.97602
G1 X78.683 Y124.345 E0.97697
G1 X78.748 Y124.79 E0.97866
G1 X78.853 Y125.149 E0.98007
G1 X78.972 Y125.423 E0.98119
G1 X79.118 Y125.666 E0.98226
G1 X79.289 Y125.851 E0.98321
G1 X79.577 Y126.052 E0.98453
G1 X79.872 Y126.179 E0.98574
G1 X80.142 Y126.249 E0.98678
G1 X80.428 Y126.288 E0.98787
G1 X80.862 Y126.265 E0.98951
G1 X81.179 Y126.211 E0.99072
G1 X81.441 Y126.139 E0.99174
G1 X81.871 Y125.978 E0.99347
G1 X81.98 Y125.93 E0.99391
G1 F1500 E-5.50609
G1 F300 Z1.62
G0 F6000 X78.274 Y124.089 Z1.62
;TYPE:WALL-INNER
G1 F300 Z0.12
G1 F1500 E0.99391
G1 F900 X78.272 Y124.09 E0.99392
G1 X78.283 Y123.777 E0.9951
G1 X78.29 Y123.709 E0.99536
G1 X78.311 Y123.518 E0.99608
G1 X78.348 Y123.312 E0.99687
G1 X78.321 Y123.519 E0.99689
G1 X78.295 Y123.709 E0.99691
G1 X78.292 Y123.777 E0.99692
G1 X78.274 Y124.089 E0.99696
G1 F1500 E-5.50304
G1 F300 Z1.62
G0 F6000 X82.351 Y122.435 Z1.62
G1 F300 Z0.12
G1 F1500 E0.99696
G1 F900 X82.264 Y122.376 E0.99735
G1 X82.187 Y122.324 E0.9977
G1 X82.277 Y122.281 E0.99784
G1 X82.351 Y122.246 E0.99804
G1 X82.351 Y122.324 E0.99813
G1 X82.351 Y122.435 E0.99828
G1 F1500 E-5.50172
G1 F300 Z1.62
G0 F6000 X82.331 Y126.4 Z1.62
G1 F300 Z0.12
G1 F1500 E0.99828
G1 F900 X82.289 Y126.23 E0.99894
G1 X82.352 Y126.202 E0.9992
G1 X82.349 Y126.236
G1 X82.331 Y126.4 E0.99929
G0 F6000 X81.899 Y126.306
G1 F900 X81.576 Y126.47 E1.00051
G1 X81.487 Y126.516 E1.00084
G1 X81.295 Y126.591 E1.00156
G1 X81.292 Y126.592 E1.00158
G1 X81.136 Y126.654 E1.00221
G1 X80.746 Y126.736 E1.00371
G1 X80.406 Y126.762 E1.00499
G1 X80.12 Y126.749 E1.00607
G1 X79.792 Y126.683 E1.00733
G1 X79.542 Y126.603 E1.00831
G1 X79.289 Y126.484 E1.00937
G1 X79.076 Y126.346 E1.01032
G1 X78.862 Y126.171 E1.01136
G1 X78.695 Y125.995 E1.01227
G1 X78.466 Y125.66 E1.0138
G1 X78.356 Y125.458 E1.01466
G1 X78.24 Y125.187 E1.01577
G1 X78.152 Y124.86 E1.01705
G1 X78.11 Y124.606 E1.01802
G1 X78.074 Y124.153 E1.01973
G1 X78.072 Y124.083 E1.01999
G1 X78.083 Y123.77 E1.02117
G1 X78.112 Y123.497 E1.0222
G1 X78.157 Y123.243 E1.02317
G1 X78.217 Y123.006 E1.02409
G1 X78.35 Y122.629 E1.02559
G1 X78.487 Y122.347 E1.02677
G1 X78.604 Y122.161 E1.0276
G1 X78.883 Y121.897 E1.02905
G1 X79.2 Y121.713 E1.03042
G1 X79.51 Y121.601 E1.03166
